X: 34107
T: Reel Des Sucres
R: reel
M: 4/4
K: Dmajor
dd|:d2e2 d2B2|G2B2 Fzdd|d2e2 d2B2|G2B2 FFcc|
c2d2 c2B2|G2F2 cccc|c2d2 c2B2|1 G2F2 BBdd:|2 G2F2 B2DE||
F2FG F2E2|D2D2 D2F2|B2d2 f2e2|d2B2 A2B2|
c2d2 efed|e2c2 c2c2|e2 (3efe (3ded cB|A2A2 G2A2|
B2 DE F2FG|F2E2 D2D2|D2F2 B2d2|f2e2 d2B2|A2B2 c2d2|
efed e2c2|c2c2 e2 (3efe|(3ded cB A2A2|G2A2 Bzdd|

